X:1
T:James Gibb editions
T:Blow, shepherds, blow - Morley
T:#
%%score [ 1 2 3 ]
L:1/8
Q:1/4=120
M:4/4
K:C
V:1 treble nm="Soprano" snm="S"
V:2 treble nm="Alto" snm="A"
V:3 treble-8 nm="Tenor" snm="T"
V:1
 z8 | z8 | z8 | z8 | z8 | z8 |[M:4/4][K:treble] d8 | B6 c2 | d4 e4- | e2 d2 c4 | B4 c4- | %11
w: ||||||Blow,|Shep- herds,|blow, blow|* your pipes|with glee|
 c2 B2 (B2 AG | A8) | G2 G2 (d4- | d2 c2) B4 | c8 | B8 | A8 | B8 | G4 B2 d4 A2 | c4 B4 | A4 G4 | %22
w: * re- sound\- * *||ing, with glad\-|* * some|glee|re-|sound-|ing:|See lo where the|fair E-|li- za,|
 D2 F4 A4 G2 | ^F2 (G4 F2) | G2 G2 B2 | d4 A4 c4 | G3 A B2 A2 | d4 ^c2 |[M:4/4] d2 D2 ^F2 A2- | %29
w: fair E- li- za,|E- li\- *|za, see she|comes with love,|love and heaven- ly,|heaven- ly|grace, heaven- ly grace|
 AG (G4 ^F2) | G2 D2 G3 G | E2 A2 A4 |[M:4/4] A4 z2 A2 | A2 A2 d4- | d4 B4 | c4 c2 B6 | %36
w: * a- bound\- *|ing. Run Nymphs a-|pace, go meet|her with|flowers and gar\-|* lands|good- ly greet|
 A4 z2 d2 d2 d2 ||[M:4/4] e4 c4 | d4 B4 | A8 | B8 |: z8 |[M:4/4] z2 d2 c3 c | B3 B A2 G2 | %44
w: her, with flowers and|gar- lands|good- ly|greet|her.||All hail E-|li- za fair, the|
 A2 B2 (A3 G) | ^F4 z2 A2 | c2 BA B2 c2 | d2 B2 A2 d2 | e2 d4 ^c2 | d8 | z4 z2 G2 | c2 BA B2 G2 | %52
w: coun- try's god\- *|dess; long,|long mayst thou live the|shep- herds' queen, and|love- ly mis-|tress;|long,|long mayst thou live, the|
 A4 B2 c2 | A2 (d4 ^c2) | d2 A2 c2 BA | B2 G2 A4 |1 B2 d2 e2 dc | d2 B2 A4 | B8 :|2 %59
w: shep- herds' love-|ly mis\- *|tress; long, long mayst thou|live their mis-|tress, long, long mayst thou|live their mis-|tress.|
[Q:1/4=128][Q:1/4=127][Q:1/4=128][Q:1/4=128] B2[Q:1/4=125] d2[Q:1/4=123] e2[Q:1/4=122] d[Q:1/4=121]c || %60
w: tress, long, long mayst thou|
[Q:1/4=119] d4[Q:1/4=115] B4 |[Q:1/4=111] A8 |[Q:1/4=108] B8 |] %63
w: live, their|mis-|tress.|
V:2
"^Blow, shepherds, blow""^Thomas Morley\n(1557-1602)" D8 | B,6 C2 | D4 E4- | E2 D2 C4 | B,4 C4- | %5
w: Blow,|Shep- herds,|blow, blow|* your pipes|with glee|
 C2 B,2 (B,2 A,G, |[M:4/4] A,8 | G,4 z4 | G8 | E6 F2 | G2 G2 A4- | A2 G2 (G4- | G2 ^FE F4) | %13
w: * re- sound\- * *||ing,|Blow,|Shep- herds,|blow with glee|* re- sound\-||
 G4 D2 E2 | ^F2 F2 G4- | G2 E2 A4- | A2 G2 G4- | G2 ^FE F4) | G4 D4 | E2 G4 D2 F4 | E2 A3 G (G2- | %21
w: ing, blow your|pipes, with glad\-|* some glee|* re- sound\-||ing: See,|see where the fair,|the fair E- li\-|
 G2 ^F2) G2 G,2 | B,2 D4 A,4 C2- | C2 B,2 A,4 | B,6- | B,2 D2 F4 A4 | E3 F G4 | F2 E4 | %28
w: * * za, fair|E- li- za, fair|* E- li-|za|* comes with love|heaven- ly love|a- bound-|
[M:4/4] D4 z2 A,2 | C2 B,2 A,4 | B,4 D2 E2- | EE C2 F4 |[M:4/4] E2 F2 E4 | ^F4 z2 D2 | D2 D2 G4 | %35
w: ing, and|grace a- bound-|ing. Run Nymphs|* a- pace, Nymphs|run, go meet|her: with|flowers and gar-|
 E4 E2 G4 G2 | ^F4 G4 z2 G2 ||[M:4/4] G2 G2 A4- | A2 G2 (G4- | G4 ^F4) | G4 G4 |: F3 F E3 E | %42
w: lands gay good- ly|greet her, with|flowers and gar\-|* lands greet||her. All|hail E- li- za|
[M:4/4] D2 G4 ^F2 | G4 F2 D2 | ^C2 (D4 C2) | D2 D2 =F2 ED | E2 ^F2 G2 E2 | D2 G2 F4 | E2 A2 G4 | %49
w: fair, all, all|hail the coun-|try's god\- *|dess; long, long mayst thou|live the shep- herds'|queen, and love-|ly sweet mis-|
 ^F4 z2 D2 | E2 DC D2 E2 | E2 ^F2 G2 G2- | G2 ^F2 G4 | z2 D2 G2 FE | F2 D2 E2 ^F2 | G2 (G4 ^F2) |1 %56
w: tress; long,|long mayst thou live, the|shep- herds' queen and|* mis- tress;|long, long mayst thou|live, the shep- herds'|fair mis\- *|
 G4 E2 A2- | AG (G4 ^F2) | G4 z2 G2 :|2 G4 E2 A2- || A2 G2 (G4- | G2 ^FE F4 | G8) |] %63
w: tress, their love\-|* ly mis\- *|tress. All|tress, their love\-|* ly mis\-||tress.|
V:3
 z8 | z8 | G8 | E6 F2 | G4 A4- | A2 G2 (G4- |[M:4/4][K:treble-8] G2 ^FE F4) | G8 | z8 | z8 | z8 | %11
w: ||Blow,|Shep- herds,|blow, blow|* re- sound\-||ing||||
 z8 | d8 | B6 c2 | d4 e4 | c4 A2 A2 | B6 c2 | d8 | G8 | x12 | z8 | z2 D2 E2 G2- | G2 D4 F4 E2 | %23
w: |Blow,|Shep- herds,|your pipes|with glad- some|glee re-|sound-|ing:|||fair E- li\-|* za, fair E-|
 D8 | G4 z2 | G2 B2 d4 A4 | c4 G2 d2- | d2 A4 |[M:4/4][K:treble-8] D4 z2 D2 | E2 G2 D4 | %30
w: li-|za,|see she comes with|love and heaven\-|* ly|grace, and|grace a- bound-|
 G4 G2 c2- | cc A2 d3 d |[M:4/4][K:treble-8] c2 d2 A4 | d6 d2 | z2 G2 G2 G2 | c4 A2 (e3 f g2) | %36
w: ing. Run, run|* a- pace, run a-|pace, Nymphs, go|meet her:|with flowers and|gar- lands greet * *|
 d4 z2 G2 G2 G2 ||[M:4/4] c4 A4 | B6 c2 | d8 | G4 z2 G2 |: A3 B c3 c | %42
w: her, with flowers and|gar- lands|good- ly|greet|her. All|hail E- li- za|
[M:4/4][K:treble-8] B3 c A2 A2 | (GABc d2) B2 | A2 G2 A4 | D8 | z8 | z2 G2 d2 cB | c2 d2 e4 | %49
w: fair, all hail the|coun\- * * * * try's|pride and god-|dess;||long, long mayst thou|live, our mis-|
 d4 z2 G2 | c2 BA B2 c2 | A4 G4 | z2 D2 G2 FE | F2 D2 E4 | D4 A4 | G4 d4 |1 G2 G2 c2 BA | B3 c d4 | %58
w: tress; long,|long mayst thou live, our|mis- tress;|long, long mayst thou|live, the shep-|herds' love-|ly mis-|tress, long, long mayst tliou|live their mis-|
 G4 z2 G2 :|2 G2 G2 c2 BA || B6 c2 | d8 | G8 |] %63
w: tress. All|tress, long, long mayst tliou|live their|mis-|tress.|

